!!!OTL: Guoshu kaihua duoduo xiang
!!!ARE: Asia, China,ÿJiangxi, Jinxian
!! IV, 261
!!!SCT: C1692
!!!YEM: Copyright 1995, estate of Helmut Schaffrath.
**kern
*ICvox
*Ivox
!! Mixed meters:  2/4; 3/4
*M3/4
*k[]
*C:
{8cc
8cc
8cc
8cc
=1
8cc
8a
8cc
8cc
8a
8cc
=2
*M2/4
16cc
16cc
16a
16cc
4dd}
=3
{16ee
16ee
16dd
16cc
16a
16cc
16dd
16cc
=4
8.a
16g
4g}
=5
{8ee
16ee
16dd
16a
16cc
8dd
=6
16cc
16cc
16a
16a
8g
8g}
=7
{16cc
16cc
16a
16a
8g
8g}
=8
*M3/4
{16g
16a
16g
16g
16cc
16cc
16a
16cc
4dd}
=9
*M2/4
{16cc
16cc
16a
16a
16dd
16cc
16a
16a
=10
8cc
16dd
16cc
8a
8a
=11
4g
4g}
=12
{8cc
16dd
16cc
8a
8a
=13
4g
4g}
=14
{8cc
16dd
16ee
8dd
16dd
16cc
=15
16a
16cc
16dd
16ee
8dd
16dd
16cc}
=16
{16a
16cc
16dd
16cc
8.a
16g
=17
2g}
==
!!!AGN: Xiaodiao
!!!AMT: irregular
!!!AIN: vox
!!!EED: Helmut Schaffrath
!!!EEV: 1.0
*-
